X:1
T:Dux Michael
T:Daniel Friderici
T:Source : Bicinia sacra---Rostock---J.Richelius---1642. Editor : André Vierendeels (12/07/17).
T:Notes : Original clefs : G2, G2 Original note values have been halved in 3-beat measures Editorial accidentals above the staff 
T:Dux Michael
T:©
T:©
C:Daniel Friderici
Z:©
%%score [ 1 2 ]
L:1/8
Q:1/4=120
M:6/4
K:F
V:1 treble nm="Soprano 1" snm="S 1"
V:2 treble nm="Soprano 2" snm="S 2"
V:1
 f2 f2 f2 d3 c B2 | A2 B2 c2 F3 G AF | GA Bc de f3 d e2 | f4 z2 d3 c BG | AF B2 c2 F2 FG A2 | %5
w: Dux Mi- cha- el _ _|par nem- pe De- * * *||o, Pa- * * *|* * * tri- ae qua _ _|
 B2 Bc de f3 d ec | f2 f2 e2 d3 c Bc | dc B2 A2 F3 c2 ^B |[M:2/2] c8 :: d4 c2 c2 | B3 B A4 | %11
w: pro- pa- * * * * * * *|* go, pro- pa- * * *|* * * go, pro- pa- go|est:|Sem- per pro|po- pu- lo|
 G2 d2 c2 c2 | B3 B A4 | G2 d2 e2 c2 | d3 d e4 | f2 f2 cdef | g2 g2 defg | a2 e2 f2 c2 | d3 d e4 | %19
w: stat, sem- per pro|po- pu- lo|stat, sem- per pro|po- pu- lo|stat, pro po- * * *|* pu- lo, _ _ _|_ sem- per pro|po- pu- lo|
 f2 d4 c2 | B2 A2 G3 F | E2 F2 G4 | F8 :| %23
w: stat, De- us|i- pse su- *||o.|
V:2
 z12 | z6 f2 f2 f2 | d3 c B2 A2 B2 c2 | F3 G AF GA Bc de | f3 d e2 f4 z2 | d3 c BG AF B2 c2 | %6
w: |Dux Mi- cha-|el _ _ par nem- pe|De- * * * * * * * * *|* * * o,|Pa- * * * * * * tri-|
 F2 FG A2 B2 Bc de | f3 d ec f3 e d2 |[M:2/2] c8 :: z8 | d4 c2 c2 | B3 B A4 | G2 d2 c2 c2 | %13
w: ae qua _ _ pro- pa- * * *|* * * * * * go|est:||sem- per pro|po- pu- lo|stat, sem- per pro|
 B3 B A4 | G2 B2 A2 G2 | FGAB c2 c2 | GABc d4 | z2 c2 B2 A2 | B3 A G4 | F2 f4 e2 | d2 c2 B3 A | %21
w: po- pu- lo|stat, sem- per pro|po- * * * * pu-|lo, _ _ _ _|sem- per pro|po- pu- lo|stat, De- us|i- pse su- *|
 G2 F4 E2 | F8 :| %23
w: |o.|

